components/ui-node-icon/src/extract/extract.medium.svg

<svg width="24" height="24" viewBox="0 0 24 24" fill="none" xmlns="http://www.w3.org/2000/svg">
  <path d="M5 4C5 2.89543 5.89543 2 7 2H12C13.1046 2 14 2.89543 14 4V20C14 21.1046 13.1046 22 12 22H7C5.89543 22 5 21.1046 5 20V4Z" fill="var(--tbl--colors--icons--clean--secondary)"/>
  <path fill-rule="evenodd" clip-rule="evenodd" d="M10.5 16.5C11.0523 16.5 11.5 16.0523 11.5 15.5V14.5C11.5 13.3954 12.3954 12.5 13.5 12.5H17.5V14C17.5 14.4045 17.7436 14.7691 18.1173 14.9239C18.491 15.0787 18.9211 14.9931 19.2071 14.7071L21.7071 12.2071C21.8946 12.0196 22 11.7652 22 11.5C22 11.2348 21.8946 10.9804 21.7071 10.7929L19.2071 8.29291C18.9211 8.00691 18.491 7.92135 18.1173 8.07613C17.7436 8.23091 17.5 8.59555 17.5 9.00001V10.5H13.5C11.2909 10.5 9.5 12.2909 9.5 14.5V15.5C9.5 16.0523 9.94772 16.5 10.5 16.5Z" fill="var(--tbl--colors--icons--clean--primary)"/>
</svg>

<svg xmlns="http://www.w3.org/2000/svg" width="24" height="24" fill="none" viewBox="0 0 24 24">
  <path fill="var(--tbl--colors--icons--clean--secondary)" d="M5 4a2 2 0 0 1 2-2h5a2 2 0 0 1 2 2v16a2 2 0 0 1-2 2H7a2 2 0 0 1-2-2V4Z"/>
  <path fill="var(--tbl--colors--icons--clean--primary)" fill-rule="evenodd" d="M10.5 16.5a1 1 0 0 0 1-1v-1a2 2 0 0 1 2-2h4V14a1 1 0 0 0 1.707.707l2.5-2.5a1 1 0 0 0 0-1.414l-2.5-2.5A1 1 0 0 0 17.5 9v1.5h-4a4 4 0 0 0-4 4v1a1 1 0 0 0 1 1Z" clip-rule="evenodd"/>
</svg>
